X: 1
T: Galway Bay
M: 3/4
L: 1/8
R: waltz
K: Dmaj
A2 | D4 F2 | A4 d2 | B3 A B2 | A4 FE | F3 ^E F2 | D4 D2 | D6- | D4 F2 |
A4 c2 | e3 f e2 | d4 F2 | G4 A2 | B4 d2 | d2 (3cdc B2 | A6- | A2 F2 G2 |
A4 c2 | e2 f2 e2 | d4 F2 | G4 A2 | Bd- d2 d2 | d2 c2 B2 | A6- | A2 F2 E2 |
D4 F2 | A4 d2 | B6 | A4 FE | F3 ^E F2 | D4 (3EFE | D6- | D4 |]
